src/topics/icons/skylight.svg

<svg height="289" preserveAspectRatio="xMidYMid" viewBox="0 0 256 289" width="256" xmlns="http://www.w3.org/2000/svg"><path d="m239.348 64.287-111.348-64.287-111.348 64.287c-10.304 5.949-16.652 16.944-16.652 28.842v109.345c0 11.899 6.348 22.893 16.652 28.842l89.177 51.487c13.72 7.921 30.623 7.921 44.342 0l89.177-51.487c10.304-5.949 16.652-16.943 16.652-28.842v-109.345c0-11.898-6.348-22.893-16.652-28.842zm-17.28 122.846c0 8.805-4.65 16.942-12.198 21.344l-63.805 37.216c-10.974 6.401-24.544 6.401-35.518 0l-63.806-37.216c-7.548-4.402-12.198-12.539-12.198-21.344v-80.919c0-8.806 4.65-16.942 12.198-21.345l81.565-47.574 81.564 47.574c7.548 4.403 12.198 12.539 12.198 21.345z" fill="#bac4c5"/><g transform="translate(68 84)"><path d="m92.404 26.041-.654.459-30.125 31.969-.402.593.152.063 30.984.047.045-.11 29.389-27.966z" fill="#ed1a3b"/><path d="m92.404 92.083-.185.042-30.875-32.688-.121-.375h31.181l29.389 27.62z" fill="#c2315d"/><path d="m61.223 59.062 31.181 33.021-1.44 25.677-29.741-29.363-.077-.272-.063-28.667z" fill="#94407e"/><path d="m28.206 90.241-.039-.304 32.666-30.645.394-.232-.004 29.337-29.53 29.363z" fill="#577f9f"/><path d="m61.227 59.06-33.021 31.181-27.511-3.645 31.197-27.536.171-.143 28.791-.021z" fill="#00aec5"/><path d="m61.227 59.064-.394-.647-32.125-30.5-.502-.034-27.511 3.907 31.197 27.274z" fill="#93c483"/><path d="m28.206 27.883 33.021 31.181.148-.772v-28l-.152-.565-29.568-29.346z" fill="#fcde11"/><path d="m61.223 59.062 31.181-33.021-1.766-25.66-29.415 29.346z" fill="#f78e36"/></g></svg>

<?xml version="1.0" encoding="UTF-8" standalone="no"?>
<svg width="256px" height="289px" viewBox="0 0 256 289" version="1.1" xmlns="http://www.w3.org/2000/svg" xmlns:xlink="http://www.w3.org/1999/xlink" preserveAspectRatio="xMidYMid">
	<g>
		<path d="M239.348,64.287 L128,0 L16.652,64.287 C6.348,70.236 0,81.231 0,93.129 L0,202.474 C0,214.373 6.348,225.367 16.652,231.316 L105.829,282.803 C119.549,290.724 136.452,290.724 150.171,282.803 L239.348,231.316 C249.652,225.367 256,214.373 256,202.474 L256,93.129 C256,81.231 249.652,70.236 239.348,64.287 L239.348,64.287 Z M222.068,187.133 C222.068,195.938 217.418,204.075 209.87,208.477 L146.065,245.693 C135.091,252.094 121.521,252.094 110.547,245.693 L46.741,208.477 C39.193,204.075 34.543,195.938 34.543,187.133 L34.543,106.214 C34.543,97.408 39.193,89.272 46.741,84.869 L128.306,37.295 L209.87,84.869 C217.418,89.272 222.068,97.408 222.068,106.214 L222.068,187.133 L222.068,187.133 Z" fill="#BAC4C5"></path>
		<g transform="translate(68.000000, 84.000000)">
			<path d="M92.404,26.041 L91.75,26.5 L61.625,58.469 L61.223,59.062 L61.375,59.125 L92.359,59.172 L92.404,59.062 L121.793,31.096 L92.404,26.041" fill="#ED1A3B"></path>
			<path d="M92.404,92.083 L92.219,92.125 L61.344,59.437 L61.223,59.062 L92.404,59.062 L121.793,86.682 L92.404,92.083" fill="#C2315D"></path>
			<path d="M61.223,59.062 L92.404,92.083 L90.964,117.76 L61.223,88.397 L61.146,88.125 L61.083,59.458 L61.223,59.062" fill="#94407E"></path>
			<path d="M28.206,90.241 L28.167,89.937 L60.833,59.292 L61.227,59.06 L61.223,88.397 L31.693,117.76 L28.206,90.241" fill="#577F9F"></path>
			<path d="M61.227,59.06 L28.206,90.241 L0.695,86.596 L31.892,59.06 L32.063,58.917 L60.854,58.896 L61.227,59.06" fill="#00AEC5"></path>
			<path d="M61.227,59.064 L60.833,58.417 L28.708,27.917 L28.206,27.883 L0.695,31.79 L31.892,59.064 L61.227,59.064" fill="#93C483"></path>
			<path d="M28.206,27.883 L61.227,59.064 L61.375,58.292 L61.375,30.292 L61.223,29.727 L31.655,0.381 L28.206,27.883" fill="#FCDE11"></path>
			<path d="M61.223,59.062 L92.404,26.041 L90.638,0.381 L61.223,29.727 L61.223,59.062" fill="#F78E36"></path>
		</g>
	</g>
</svg>
